img/vector-photoshop.svg

<svg width="60" height="60" viewBox="0 0 60 60" fill="none" xmlns="http://www.w3.org/2000/svg">
<path fill-rule="evenodd" clip-rule="evenodd" d="M10.9091 0C8.01582 0 5.24105 1.14935 3.1952 3.1952C1.14935 5.24105 0 8.01582 0 10.9091V49.0909C0 51.9842 1.14935 54.7589 3.1952 56.8048C5.24105 58.8507 8.01582 60 10.9091 60H49.0909C51.9842 60 54.7589 58.8507 56.8048 56.8048C58.8507 54.7589 60 51.9842 60 49.0909V10.9091C60 8.01582 58.8507 5.24105 56.8048 3.1952C54.7589 1.14935 51.9842 0 49.0909 0H10.9091ZM12.2727 16.3636H21.8182C24.3498 16.3636 26.7777 17.3693 28.5678 19.1594C30.358 20.9496 31.3636 23.3775 31.3636 25.9091C31.3636 28.4407 30.358 30.8686 28.5678 32.6587C26.7777 34.4489 24.3498 35.4545 21.8182 35.4545H17.7273V43.6364H12.2727V16.3636ZM17.7273 30H21.8182C22.9032 30 23.9437 29.569 24.7109 28.8018C25.4781 28.0346 25.9091 26.9941 25.9091 25.9091C25.9091 24.8241 25.4781 23.7836 24.7109 23.0164C23.9437 22.2492 22.9032 21.8182 21.8182 21.8182H17.7273V30ZM46.1591 29.0018C43.8218 28.4755 41.3455 28.0609 39.5509 28.1945C38.6427 28.26 37.4836 28.5436 38.6509 29.4818C39.6136 30.2509 40.7509 30.7336 41.8909 31.2136C43.0636 31.71 44.2418 32.2091 45.24 33.03C46.6336 34.1755 47.7273 35.8445 47.7273 38.1818C47.7273 40.5136 46.6255 42.3 44.8691 43.3636C43.3173 44.3018 41.4436 44.5691 39.8209 44.61C37.1973 44.6755 34.3064 44.1518 32.1518 43.6227V37.9827C34.1373 38.55 37.2191 39.2182 39.6845 39.1555C40.9664 39.1255 41.7218 38.8909 42.0655 38.6836C42.6109 38.3564 42.1145 37.5218 41.7791 37.2464C40.8191 36.4555 39.6655 35.97 38.5064 35.4818C37.3609 34.9991 36.21 34.5136 35.2391 33.7364C33.8482 32.6182 32.7273 30.9682 32.7273 28.6364C32.7273 26.7409 33.5182 25.1455 34.9636 24.0955C36.2509 23.1682 37.8109 22.8518 39.1445 22.7536C41.3945 22.5873 43.9909 22.9773 46.1591 23.4218V29.0018Z" fill="#F7F1E8"/>
</svg>

<?xml version="1.0" encoding="utf-8"?>
<!-- Generator: Adobe Illustrator 23.0.1, SVG Export Plug-In . SVG Version: 6.00 Build 0)  -->
<svg version="1.1" id="Capa_1" xmlns="http://www.w3.org/2000/svg" xmlns:xlink="http://www.w3.org/1999/xlink" x="0px" y="0px"
	 viewBox="0 0 60 60" style="enable-background:new 0 0 60 60;" xml:space="preserve">
<style type="text/css">
	.st0{fill:#1A1AA2;}
	.st1{fill-rule:evenodd;clip-rule:evenodd;fill:#F7F1E8;}
</style>
<rect x="10.7" y="14.6" class="st0" width="37.9" height="30.7"/>
<path class="st1" d="M10.9,0C8,0,5.2,1.1,3.2,3.2S0,8,0,10.9v38.2c0,2.9,1.1,5.7,3.2,7.7c2,2,4.8,3.2,7.7,3.2h38.2
	c2.9,0,5.7-1.1,7.7-3.2c2-2,3.2-4.8,3.2-7.7V10.9c0-2.9-1.1-5.7-3.2-7.7c-2-2-4.8-3.2-7.7-3.2H10.9z M12.3,16.4h9.5
	c2.5,0,5,1,6.7,2.8c1.8,1.8,2.8,4.2,2.8,6.7s-1,5-2.8,6.7c-1.8,1.8-4.2,2.8-6.7,2.8h-4.1v8.2h-5.5V16.4z M17.7,30h4.1
	c1.1,0,2.1-0.4,2.9-1.2c0.8-0.8,1.2-1.8,1.2-2.9c0-1.1-0.4-2.1-1.2-2.9c-0.8-0.8-1.8-1.2-2.9-1.2h-4.1V30z M46.2,29
	c-2.3-0.5-4.8-0.9-6.6-0.8c-0.9,0.1-2.1,0.3-0.9,1.3c1,0.8,2.1,1.3,3.2,1.7c1.2,0.5,2.4,1,3.3,1.8c1.4,1.1,2.5,2.8,2.5,5.2
	c0,2.3-1.1,4.1-2.9,5.2c-1.6,0.9-3.4,1.2-5,1.2c-2.6,0.1-5.5-0.5-7.7-1V38c2,0.6,5.1,1.2,7.5,1.2c1.3,0,2-0.3,2.4-0.5
	c0.5-0.3,0-1.2-0.3-1.4c-1-0.8-2.1-1.3-3.3-1.8c-1.1-0.5-2.3-1-3.3-1.7c-1.4-1.1-2.5-2.8-2.5-5.1c0-1.9,0.8-3.5,2.2-4.5
	c1.3-0.9,2.8-1.2,4.2-1.3c2.3-0.2,4.8,0.2,7,0.7V29z"/>
</svg>
